X:1
T:Title
L:1/8
Q:1/4=110
M:4/4
K:G
V:1 treble nm="Church Organ, Staff"
V:1
 d2 d2 B2 G2 | c2 B2- B/ z/ A G2 | GF E2 c2 B2 | A2 G6 | D2 D2 D2 D2 | D2 B2- B/ z/ A G2 | %6
w: By~Unknown * * *||||||
 d2 d2- d/ z/ c B2 | A2 G6 | z2 z D GB d2- | dB c2 A2 B2 | z2 z D GB d2- | dded cA G2 | %12
w: ||||||
 G2 d2 G2 e2 | z2 z D GB d2- | dded cA G2- | G2[Q:1/4=90] B2 B2 B2 |] %16
w: ||||

